X: 15429
T: Glen Cottage, The
R: polka
M: 2/4
K: Eminor
|:B>A|GE ED|B,E E>F|GF ED|GA B>A|
GE ED|B,E EA|BA GF|E2:|
B>A|:Be ef|eB BA|Be ^df|e2ef|
g2fg/f/|ed BA|BE E/F/G/A/|B2A2:|

